src/icons/remove-silence.svg

<?xml version="1.0" encoding="UTF-8"?>
<svg xmlns="http://www.w3.org/2000/svg" xmlns:xlink="http://www.w3.org/1999/xlink" width="32" height="32" viewBox="0 0 32 32" version="1.1">
<g id="surface1">
<path style=" stroke:none;fill-rule:nonzero;fill:rgb(0%,0%,0%);fill-opacity:1;" d="M 25.503906 1.273438 C 24.550781 1.273438 23.96875 2.144531 23.164062 3.351562 C 21.644531 5.617188 19.121094 9.355469 12.152344 9.578125 L 12.152344 19.214844 C 16.066406 19.320312 18.539062 20.566406 20.25 22.101562 C 19.585938 23.109375 19.199219 24.308594 19.199219 25.601562 C 19.199219 29.128906 22.074219 32 25.601562 32 C 29.128906 32 32 29.128906 32 25.601562 C 32 22.71875 30.082031 20.277344 27.460938 19.476562 C 27.496094 18.105469 27.515625 16.558594 27.515625 14.71875 C 27.515625 1.273438 26.253906 1.273438 25.503906 1.273438 Z M 4.476562 9.601562 C 2.710938 9.601562 1.28125 11.03125 1.28125 12.796875 L 1.28125 15.996094 C 1.28125 17.761719 2.710938 19.191406 4.476562 19.191406 L 10.878906 19.191406 L 10.878906 9.601562 Z M 28.78125 12.339844 C 28.789062 13.09375 28.796875 13.882812 28.796875 14.71875 C 28.796875 15.796875 28.789062 16.804688 28.777344 17.746094 C 29.898438 17.363281 30.6875 16.335938 30.6875 15.089844 C 30.6875 13.824219 29.890625 12.75 28.78125 12.339844 Z M 4.246094 20.460938 C 4.96875 22.433594 5.648438 25.996094 6.144531 28.589844 C 6.246094 29.113281 6.550781 30.71875 8.601562 30.71875 L 10.738281 30.71875 C 12.4375 30.71875 12.796875 29.671875 12.796875 28.796875 C 12.796875 27.65625 12.15625 26.925781 11.414062 26.191406 C 11.238281 25.914062 10.960938 24.390625 10.890625 20.472656 L 4.476562 20.472656 C 4.398438 20.472656 4.320312 20.464844 4.246094 20.460938 Z M 25.601562 20.480469 C 28.433594 20.480469 30.71875 22.765625 30.71875 25.601562 C 30.71875 28.433594 28.433594 30.71875 25.601562 30.71875 C 22.765625 30.71875 20.480469 28.433594 20.480469 25.601562 C 20.480469 22.765625 22.765625 20.480469 25.601562 20.480469 Z M 23.359375 22.71875 C 23.199219 22.71875 23.039062 22.785156 22.914062 22.914062 C 22.65625 23.167969 22.65625 23.550781 22.914062 23.808594 L 24.703125 25.601562 L 22.914062 27.390625 C 22.65625 27.648438 22.65625 28.03125 22.914062 28.289062 C 23.039062 28.414062 23.234375 28.480469 23.359375 28.480469 C 23.488281 28.480469 23.679688 28.414062 23.808594 28.289062 L 25.601562 26.496094 L 27.390625 28.289062 C 27.519531 28.414062 27.710938 28.480469 27.839844 28.480469 C 27.96875 28.480469 28.160156 28.414062 28.289062 28.289062 C 28.542969 28.03125 28.542969 27.648438 28.289062 27.390625 L 26.496094 25.601562 L 28.289062 23.808594 C 28.542969 23.550781 28.542969 23.167969 28.289062 22.914062 C 28.03125 22.65625 27.648438 22.65625 27.390625 22.914062 L 25.601562 24.703125 L 23.808594 22.914062 C 23.679688 22.785156 23.519531 22.71875 23.359375 22.71875 Z M 23.359375 22.71875 "/>
</g>
</svg>

<svg role="img" viewBox="0 0 32 32" xmlns="http://www.w3.org/2000/svg"><path d="M25.504 1.273c-.953 0-1.535.872-2.34 2.079-1.52 2.265-4.043 6.003-11.012 6.226v9.637c3.914.105 6.387 1.351 8.098 2.887a6.333 6.333 0 0 0-1.05 3.5c0 3.527 2.874 6.398 6.402 6.398A6.407 6.407 0 0 0 32 25.602c0-2.883-1.918-5.325-4.54-6.125.036-1.372.056-2.918.056-4.758 0-13.446-1.262-13.446-2.012-13.446M4.477 9.602a3.194 3.194 0 0 0-3.196 3.195v3.2a3.194 3.194 0 0 0 3.196 3.194h6.402v-9.59ZM28.78 12.34c.008.754.016 1.543.016 2.379 0 1.078-.008 2.086-.02 3.027a2.788 2.788 0 0 0 1.91-2.656 2.93 2.93 0 0 0-1.906-2.75M4.246 20.46c.723 1.974 1.402 5.536 1.899 8.13.101.523.406 2.129 2.457 2.129h2.136c1.7 0 2.059-1.047 2.059-1.922 0-1.14-.64-1.871-1.383-2.606-.176-.277-.453-1.8-.523-5.718H4.477c-.079 0-.157-.008-.23-.012m21.356.02a5.11 5.11 0 0 1 5.117 5.122 5.11 5.11 0 0 1-5.117 5.117 5.11 5.11 0 0 1-5.122-5.117 5.111 5.111 0 0 1 5.122-5.122M23.36 22.72a.62.62 0 0 0-.445.195.614.614 0 0 0 0 .895l1.79 1.793-1.79 1.789a.618.618 0 0 0 0 .898.7.7 0 0 0 .445.191c.13 0 .32-.066.45-.19l1.793-1.794 1.789 1.793c.129.125.32.191.449.191s.32-.066.45-.19a.625.625 0 0 0 0-.9l-1.794-1.788 1.793-1.793a.62.62 0 0 0 0-.895.618.618 0 0 0-.898 0l-1.79 1.79-1.792-1.79a.636.636 0 0 0-.45-.195m0 0" style="stroke:none;fill-rule:nonzero;fill:rgb(0%,0%,0%);fill-opacity:1"/></svg>
